X: 2
T: Maggie's Pancakes
R: reel
M: 4/4
L: 1/8
K: Bmin
fB~B2 fgfe|dBAB GBdB|cAAd AAeA|Aaec Aceg|fB~B2 fgfe|dBAB GBdB|cABc def^g|afec B3e:||:f2dB GBdB|caec dB~B2|f2dB GBdB|caec Bcde|fd~d2 fgfe|dBAB GBdB|cABc def^g|afec B3e:|


Tune 1316	Setting 1316

